source/img/htmlacademy-small.svg

<?xml version="1.0" encoding="UTF-8"?>
<svg xmlns="http://www.w3.org/2000/svg" xmlns:xlink="http://www.w3.org/1999/xlink" width="34pt" height="34pt" viewBox="0 0 34 34" version="1.1">
<g id="surface1">
<path style=" stroke:none;fill-rule:nonzero;fill:rgb(0%,0%,0%);fill-opacity:1;" d="M 17.113281 2.832031 L 17 2.832031 L 5.835938 4.023438 L 5.835938 24.535156 L 17 31.167969 L 28.164062 24.535156 L 28.164062 4.023438 Z M 26.746094 23.6875 L 17 29.464844 L 7.253906 23.6875 L 7.253906 15.300781 L 16.941406 21.078125 L 16.941406 22.101562 L 10.3125 18.132812 L 10.3125 19.152344 L 17 23.175781 L 17 24.253906 L 10.3125 20.285156 L 10.3125 21.308594 L 17 25.273438 L 23.742188 21.25 L 23.742188 16.941406 L 26.746094 15.128906 Z M 26.691406 14.054688 L 24.027344 15.640625 L 22.78125 16.375 L 16.941406 12.921875 L 16.941406 13.941406 L 21.929688 16.941406 L 21.875 16.941406 L 21.761719 17 L 21.023438 17.398438 L 16.886719 14.960938 L 16.886719 15.980469 L 20.171875 17.90625 L 19.378906 18.417969 L 16.941406 16.941406 L 16.941406 17.964844 L 18.585938 18.925781 L 16.941406 19.890625 L 7.308594 14.167969 L 16.941406 8.386719 Z M 26.746094 13.035156 L 16.941406 7.253906 L 7.253906 13.035156 L 7.253906 5.328125 L 17 4.308594 L 26.746094 5.328125 Z M 26.746094 13.035156 "/>
</g>
</svg>

<svg xmlns="http://www.w3.org/2000/svg" width="34pt" height="34pt" viewBox="0 0 34 34"><path d="M17.113 2.832H17L5.836 4.023v20.512L17 31.168l11.164-6.633V4.023zm9.633 20.855L17 29.465l-9.746-5.777V15.3l9.687 5.777v1.024l-6.628-3.97v1.02L17 23.176v1.078l-6.688-3.969v1.024L17 25.273l6.742-4.023v-4.309l3.004-1.812zm-.055-9.632l-2.664 1.586-1.246.734-5.84-3.453v1.02l4.989 3h-.055l-.113.058-.739.398-4.136-2.437v1.02l3.285 1.925-.793.512-2.438-1.477v1.024l1.645.96-1.645.966-9.632-5.723 9.632-5.781zm.055-1.02l-9.805-5.781-9.687 5.781V5.328L17 4.308l9.746 1.02zm0 0"/></svg>
